src/pos-icons/sticker.svg

<svg height="24" viewBox="0 0 24 24" width="24" xmlns="http://www.w3.org/2000/svg"><path d="m18.5 2h-13c-1.9 0-3.5 1.6-3.5 3.5v13c0 1.9 1.6 3.5 3.5 3.5h10.5l6-6v-10.5c0-1.9-1.6-3.5-3.5-3.5m-3.5 18v-1.5c0-1.9 1.6-3.5 3.5-3.5h1.5z"/></svg>

<?xml version="1.0" encoding="UTF-8"?><!DOCTYPE svg PUBLIC "-//W3C//DTD SVG 1.1//EN" "http://www.w3.org/Graphics/SVG/1.1/DTD/svg11.dtd"><svg xmlns="http://www.w3.org/2000/svg" xmlns:xlink="http://www.w3.org/1999/xlink" version="1.1" id="mdi-sticker" width="24" height="24" viewBox="0 0 24 24"><path d="M18.5 2H5.5C3.6 2 2 3.6 2 5.5V18.5C2 20.4 3.6 22 5.5 22H16L22 16V5.5C22 3.6 20.4 2 18.5 2M15 20V18.5C15 16.6 16.6 15 18.5 15H20L15 20Z" /></svg>
